X:103
T:Battle of the Nile,The. JGi.103
O:Tealby,Lincolnshire
M:C|
L:1/8
Q:1/4=110
S:Joshua Gibbons MS,1823,Tealby,Lincs.
R:air
Z:VMP/R.Greig, 2009
K:C
G2|c3cd3d|e>de>fg2c2|f2efd2ce|dcBA GABG|
c3cd3d|e>de>fg2ag|gedc edcB|c2c>cc2:|
|:ef|g2efg2ee|agfef2de|f2def2dd|gfed edcB|
Bcccd2dd|e>de>fg2GG|c2ccd2dd|e>de>fg2fe|
agfe fedc|dcBA GABG|c3cd3d|e>de>fg2ce|f2e>fd2c>d|
ccBA GABG|c3cd3d|edefg2ag|fedc edcB|c2c>cc2:|

